svg/NEPAnode-EnergyInfrastructure/Wind_Icon.svg

<?xml version="1.0" encoding="UTF-8" standalone="no"?>
<!-- Created with Inkscape (http://www.inkscape.org/) -->

<svg
   xmlns:dc="http://purl.org/dc/elements/1.1/"
   xmlns:cc="http://creativecommons.org/ns#"
   xmlns:rdf="http://www.w3.org/1999/02/22-rdf-syntax-ns#"
   xmlns:svg="http://www.w3.org/2000/svg"
   xmlns="http://www.w3.org/2000/svg"
   xmlns:xlink="http://www.w3.org/1999/xlink"
   xmlns:sodipodi="http://sodipodi.sourceforge.net/DTD/sodipodi-0.dtd"
   xmlns:inkscape="http://www.inkscape.org/namespaces/inkscape"
   version="1.1"
   width="250"
   height="250"
   viewBox="0 0 0.34722222 0.34722222"
   id="svg2"
   inkscape:version="0.48.4 r9939"
   sodipodi:docname="Wind_Icon.svg">
  <sodipodi:namedview
     pagecolor="#ffffff"
     bordercolor="#666666"
     borderopacity="1"
     objecttolerance="10"
     gridtolerance="10"
     guidetolerance="10"
     inkscape:pageopacity="0"
     inkscape:pageshadow="2"
     inkscape:window-width="1360"
     inkscape:window-height="744"
     id="namedview18"
     showgrid="false"
     inkscape:zoom="2.232"
     inkscape:cx="125"
     inkscape:cy="29.772854"
     inkscape:window-x="0"
     inkscape:window-y="24"
     inkscape:window-maximized="1"
     inkscape:current-layer="svg2" />
  <title
     id="title4">SVG drawing</title>
  <desc
     id="desc6">This was produced by version 4.1 of GNU libplot, a free library for exporting 2-D vector graphics.</desc>
  <metadata
     id="metadata3395">
    <rdf:RDF>
      <cc:Work
         rdf:about="">
        <dc:format>image/svg+xml</dc:format>
        <dc:type
           rdf:resource="http://purl.org/dc/dcmitype/StillImage" />
        <dc:title>SVG drawing</dc:title>
      </cc:Work>
    </rdf:RDF>
  </metadata>
  <defs
     id="defs3393">
    <linearGradient
       id="linearGradient8138">
      <stop
         id="stop8140"
         style="stop-color:#ffffff;stop-opacity:0"
         offset="0" />
      <stop
         id="stop8142"
         style="stop-color:#000000;stop-opacity:0"
         offset="1" />
    </linearGradient>
    <radialGradient
       cx="0.17569096"
       cy="0.17470571"
       r="0.16916668"
       fx="0.17569096"
       fy="0.17470571"
       id="radialGradient8144"
       xlink:href="#linearGradient8138"
       gradientUnits="userSpaceOnUse" />
  </defs>
  <g
     id="g24685">
    <text
       x="-0.032071669"
       y="0.3455472"
       id="text7140"
       xml:space="preserve"
       style="font-size:0.0555556px;font-style:normal;font-variant:normal;font-weight:normal;font-stretch:normal;line-height:125%;letter-spacing:0px;word-spacing:0px;fill:#000000;fill-opacity:1;stroke:none;font-family:Energy Infrastructure;-inkscape-font-specification:Energy Infrastructure"><tspan
         x="-0.032071669"
         y="0.3455472"
         id="tspan7142"
         style="font-size:0.59036261px" /></text>
    <path
       d="M 329.28829,363.4657 A 105.41456,102.94666 0 1 1 118.45918,363.4657 105.41456,102.94666 0 1 1 329.28829,363.4657 z"
       transform="matrix(0.00161659,0,0,0.00168318,-0.18770819,-0.44043665)"
       id="path3037"
       style="opacity:0;fill:#000000;fill-opacity:1;fill-rule:nonzero;stroke:#000000;stroke-opacity:1" />
    <path
       d="M 296.14793,366.28613 A 58.877029,87.434151 0 1 1 178.39388,366.28613 58.877029,87.434151 0 1 1 296.14793,366.28613 z"
       transform="matrix(0.00161659,0,0,0.00168318,-0.18770819,-0.44043665)"
       id="path3807"
       style="opacity:0;fill:#000000;fill-opacity:1;fill-rule:nonzero;stroke:#000000;stroke-width:2;stroke-linejoin:round;stroke-miterlimit:4;stroke-opacity:1;stroke-dasharray:none" />
    <g
       transform="scale(1.0118586,0.98828038)"
       style="font-size:0.06758222px;font-style:normal;font-variant:normal;font-weight:normal;font-stretch:normal;line-height:125%;letter-spacing:0px;word-spacing:0px;fill:#000000;fill-opacity:1;fill-rule:evenodd;stroke:none;font-family:Energy Infrastructure;-inkscape-font-specification:Energy Infrastructure"
       id="text8169">
      <path
         d="M 0.00633182,0.32057234 C 0.00254712,0.31442238 0.00254712,0.30590704 0.00633182,0.29502628 0.01011632,0.2841456 0.01792205,0.27350142 0.02974904,0.26309371 0.04204886,0.25221306 0.05884302,0.24251503 0.08013155,0.23399958 0.10141974,0.22548434 0.12767539,0.22028051 0.15889856,0.2183881 0.15937139,0.21933437 0.15984447,0.22028051 0.16031779,0.22122655 0.16126369,0.22169974 0.1619733,0.22217281 0.16244663,0.22264578 0.16291945,0.22359204 0.16339253,0.22406511 0.16386585,0.224065 0.13453497,0.2429881 0.10851586,0.25954572 0.08580845,0.2737379 0.0758737,0.27988793 0.06617567,0.2860379 0.05671432,0.29218783 0.04725268,0.29786477 0.03873734,0.30283205 0.03116826,0.3070897 0.02407202,0.3113474 0.01815859,0.31489546 0.01342794,0.31773389 0.00869709,0.32009928 0.00633172,0.32104543 0.00633182,0.32057234 M 0.17238121,0.20206701 C 0.1695425,0.20301329 0.16788674,0.20348636 0.16741392,0.20348623 L 0.16528508,0.20348623 C 0.1638656,0.16895191 0.16268292,0.13820205 0.16173702,0.11123657 0.16126369,0.099883 0.16079062,0.08876574 0.16031779,0.07788477 0.16031754,0.06653123 0.160081,0.05659666 0.15960818,0.04808103 0.15960793,0.0390929 0.15960793,0.03199678 0.15960818,0.02679265 0.15960793,0.02158913 0.15984447,0.01898722 0.16031779,0.01898691 0.16741366,0.01898722 0.17474632,0.02324489 0.18231579,0.03175994 0.18988471,0.04027558 0.19532507,0.05257553 0.19863688,0.0686598 0.20194812,0.08427153 0.20194812,0.10343106 0.19863688,0.12613844 0.19532507,0.14884623 0.18657319,0.17415573 0.17238121,0.20206701 M 0.17876772,0.22193617 0.18160617,0.21484004 C 0.21188269,0.23139777 0.23908448,0.24582655 0.26321164,0.25812642 0.27314586,0.26380339 0.28308043,0.26924375 0.29301538,0.27444751 0.30294957,0.27965139 0.31170145,0.28438214 0.31927105,0.28863977 0.32683984,0.29242441 0.33275328,0.29573593 0.33701137,0.29857435 0.3417417,0.30093975 0.34410707,0.30235898 0.3441075,0.30283202 0.34032247,0.30898202 0.33275328,0.3132397 0.32139989,0.31560505 0.31051877,0.31749737 0.29727267,0.31607815 0.28166158,0.31134738 0.26652282,0.30614358 0.2499652,0.29668208 0.23198868,0.28296287 0.21401152,0.26877067 0.19627122,0.24842846 0.17876772,0.22193617"
         style="font-size:0.70961279px;fill:#000000"
         id="path2996" />
    </g>
  </g>
</svg>

<svg xmlns="http://www.w3.org/2000/svg" width="250" height="250" viewBox="0 0 0.34722222 0.34722222"><text x="-.032" y=".346" font-family="Energy Infrastructure" word-spacing="0" line-height="125%" letter-spacing="0" font-size=".056"><tspan x="-.032" y=".346" font-size=".59"/></text><g fill-rule="evenodd"><path d="m.006.321c-.004-.006-.004-.015 0-.026.004-.011.012-.022.023-.032.012-.011.029-.021.05-.029.021-.009.048-.014.079-.016 0 .0001.0001.002.0001.003.0001 0 .002.0001.002.0001 0 .0001.0001.0001.0001.0001-.029.019-.055.035-.078.05-.001.006-.02.012-.029.018-.009.006-.018.011-.026.015-.007.004-.013.008-.018.011-.005.002-.007.003-.007.003m.166-.119c-.003.0001-.004.0001-.005.0001h-.002c-.0001-.035-.003-.065-.004-.092 0-.011-.0001-.022-.0001-.033 0-.011 0-.021-.0001-.03 0-.009 0-.016 0-.021 0-.005 0-.008.0001-.008.007 0 .014.004.022.013.008.009.013.021.016.037.003.016.003.035 0 .057-.003.023-.012.048-.026.076m.006.02l.003-.007c.03.017.057.031.082.043.001.006.02.011.03.016.001.005.019.001.026.014.008.004.013.007.018.001.005.002.007.004.007.004-.004.006-.011.001-.023.013-.011.002-.024 0-.04-.004-.015-.005-.032-.015-.05-.028-.018-.014-.036-.035-.053-.061" transform="scale(1.01186.98828)"/></g></svg>
